X: 30442
T: CHARLOTTE'S DANCE
C:
%R: jig
B: Elias Howe "The Musician's Companion" Part 3 1844 p.44 #2
S: http://imslp.org/wiki/The_Musician's_Companion_(Howe,_Elias)
S: https://archive.org/stream/firstthirdpartof03howe/#page/66/mode/1up
Z: 2016 John Chambers <jc:trillian.mit.edu>
M: 6/8
L: 1/8
K: D
% - - - - - - - - - - - - - - - - - - - - - - - - -
A |\
dcd AFD | FAc d2c | def gfg | Bed d2c |\
dAf ecA | ^GBe cBA | cea fdB | dB^G A2 :|
|: c/d/ |\
e2e cBA | ^GBe d2c | ABc def | gBe d2c |\
dA=c BFG | eBd c^GA | ae=g fcd | Adc d2 :|
% - - - - - - - - - - - - - - - - - - - - - - - - -
